X: 171
M: C|
L: 1/8
K: F
V: 1
|: f |
cdfg agfa | gfga g>fdf |\
[1 cdfg agfa | gfba Tg2f :|\
[2 c/c/c af gfba | gfba Tg2f |]
V: 2 clef=bass middle=d
z |\
f2f2 f2f2 | g2g2 g2g2 |\
f2f2 f2f2 | c2f2 d2d :|\
|: z |
f2f2 f2f2 | g2g2 g2g2 |\
[1 f2f2 f2f2 | c2c2 c2f :|\
[2 f2f2 f2f2 | c2c2 c2f |]

